!!!OTL: DER KUCKUK IST EIN KLUGER MANN
!!!ARE: Europa, Mitteleuropa, Deutschland, Hessen, Hanau, Hattengesaess
!!!SCT: E0881A
!!!YEM: Copyright 1995, estate of Helmut Schaffrath.
**kern
*ICvox
*Ivox
*M2/4
*k[]
*C:
{8G
=1
8E
8G
8G
8G
=2
8A
8G
4G}
=3
{16G
16G
16G
16G
8A
8B
=4
4c
8r}
{8G
=5
8E
8G
8G
8G
=6
8A
8G
4G}
=7
{16G
16G
16G
16G
8A
8B
=8
4c
8r}
{8B
=9
8B
8B
8B
8A
=10
8B
8c
8d
8r}
=11
{16c
16c
16c
16c
8c
8c
=12
8B
8A
8G}
{8G
=13
8E
8E
8G
8G
=14
8c
8c
4e}
=15
{16d
16d
16d
16d
8d
8d
=16
4c
8r}
{8G
=17
8.f
16f
8f
8g
=18
8.e
16e
4e}
=19
{16d
16d
16d
16d
8d
8d
=20
8c
8e
8g}
{8G
=21
8.f
16f
8f
8g
=22
8.e
16e
4e}
=23
{16d
16d
16d
16d
8d
8d
=24
4c
8r}
==
!!!AGN: Hochzeits -, Ehestands - Lied
!!!ONB: ESAC (Essen Associative Code) Database: ERK2
!!!AMT: simple duple
!!!AIN: vox
!!!EED: Helmut Schaffrath
!!!EEV: 1.0
*-
